X:5
T:I'd Rather Be Fishin'
R:jig
C:Bruce Osborne - July 2002
Z:bosborne@kos.net
M:6/8
L:1/8
K:Emaj
g/a/|bge BeB|GBG EGE|FDB, B,CD|EGc B2 g/a/|
bge BeB|GBG EGE|FDB, B,CD|EGF E2:|
|:G/A/|BGB cAc|BGE B,EG|FEF FEF|BcA G2 G/A/|
BGB cAc|BGE B,EG|FEF cBG|EFE E2:|
